X:1
T:Clori lucente
T:Adriano Banchieri Bolognese
T:Source : Canzonette a tre voci di A.Banchieri---Venetia---R.Amadino---1597. Editor : André Vierendeels (07/03/17).
T:Notes : Original clefs : C1, C1, C4 Editorial accidentals above the staff Sub-heading : "Mattinata" 
T:Clori lucente
T:©
T:©
T:©
T:©
T:©
C:Adriano Banchieri Bolognese
Z:©
%%score [ 1 2 3 ]
L:1/8
Q:1/4=120
M:4/4
K:F
V:1 treble nm="Soprano 1" snm="S 1"
V:2 treble nm="Soprano 2" snm="S 2"
V:3 treble-8 nm="Tenor" snm="T"
V:1
"^1)" c4 c2 c2 | A2 F2 AGAB | c2 d2 c4 | z2 G2 A3 F | G2 c2 c4 | z2 G2 A4 | F4 G3 F | EC F4 E2 | %8
w: Clo- ri lu-|cen- t'e bel- * * *|* * la,|voi- se- te|pro- prio'il Sol|non che'u-|na stel- *||
w: Voi se- te|di vez- zo- * * *|* * sa,|che so- pra|gli'al- tri fior|se- te'u-|na ro- *||
 F2 c2 c2 c2 | A2 F2 AGAB | c2 d2 c4 | z2 G2 A3 F | G2 c2 c4 | z2 G2 A4 | F4 G3 F | EC F4 E2 | %16
w: la, Clo- ri lu-|cen- t'e bel- * * *|* * la,|voi- se- te|pro- prio'il sol|non che'u-|na stel- *||
w: sa, voi se- te|di vez- zo- * * *|* * sa,|che so- prz|clj'al- tri fior|se- te'u-|na ro- *||
 F2 A2 A4 | z2 G2 c3 =B | c2 G2 A2 =B2 | c2 c2 cBAG | B2 A2 z2 c2 | dcBA G2 d2 | z2 c2 dcBA | %23
w: la, per- che,|per- che se'in|voi ris- guar- *|* do'a- vam- po di dol-|cez- za, a|vam- po di dol- cez- za,|a- vam- po di dol-|
w: se, e s'io,|e s'io yal'|hor vo mi- *|* o'e for- za che dal|pet- to, e|for- za che dal pet- to,|e for- za che dal|
 G2 c2 z2 A2 | c4 A4 | G8 | A2 F2 c4 | z2 c2 A2 d2 | G2 c2 F4 | G4 z2 c2 | FGAB c2 G2 | %31
w: cez- za e|nel cor|ar-|do, per- che,|per- che se'in|voi ris- guar-|do, a-|vam- po di dol- cz- za,|
w: pet- to, es-|ca'un so-|spi-|ro, e s'io,|e s'io tal'|hor vi mi-|ro, e|for- za che dal pet- to,|
 z2 F2 BAGF | E2 A2 z2 d2 | cBAG F3 F | E2 E2 F4- | F2 ED E4 | F8 |] %37
w: a- vam- po di dol-|cez- za, a|vam- po di dol- cez- za'e|nel cor ar-||.do.|
w: e for- za che dal|pet- to, e|for- za che dal pet- to'es-|n' so- spi-||ro.|
V:2
"^2)" z8 |"^1)" c4 c2 c2 | A2 F2 AGAB | c2 d2 c4 | z2 G2 A3 F | G2 c2 c4 | z2 B2 B2 d2 | %7
w: |Clo- ri lu-|cen- t'e bel- * * *|* * la,|voi se- te|pro- prio'il Sol|non che'u- na|
w: |Deh' per che|fi- ne'h- mai- * * *|* * i,|non da- te'a|yan- te pe-|n'e tan- ti|
 c3 B/A/ G4 | A8 | z2 c2 c2 c2 | A2 F2 AGAB | c2 d2 c4 | z2 G2 A3 F | G2 c2 c4 | z2 B2 B2 d2 | %15
w: stel- * * *|la,|Clo- ri lu-|cen- t'e bel- * * *|* * la,|voi se- te|pro- prio'il sol|non che'u- na|
w: gua- * * *|i,|deh per che|fi- ne'ho- ma- * * *|* * i,|non da- te'a|tan- te pe-|n'e tan- ti|
 c3 B/A/ G4 | A2 F2 c4 | z2 c2 A2 d2 | G2 c2 F4 | G4 z2 c2 |"^b" FGAB c2 G2 | z2 F2 BAGF | %22
w: stel- * * *|la, per- che,|per- che se'in|voi ris- guar-|do, a-|vam- po- di dol- cez- za,|a- vam- po- di dol-|
w: gua- * * *|i, su, su,|su, su, al-|ma mia di-|va, fa-|te ch'in gra- tia vo- stra|fa- te ch'in gra- tia|
 E2 A2 z2 d2 | cBAG F3 F | E2 E2 F4- | F2 ED E4 | F2 A2 A4 | z2 G2 c3 =B | c2 G2 A2 =B2 | %29
w: cez- za, a-|vam- po di dol- cez- za'e|nel cor ar-||do, per- che,|per- che se'in|voi ris- guar- *|
w: vo- stra, fa-|te ch'in gra- tia vo- stra,|sem- pre vi-||va, su, su,|su, su, al-|ma mia di- *|
"^b" c2 c2 cBAG | B2 A2 z2 c2 | dcBA G2 d2 | z2 c2 dcBA | G2 c2 z2 A2 | c4 A4 | G8 | A8 |] %37
w: do, a- vam- po di dol-|cez- za, a-|vam- po di dol- cez- za,|a- vam- po di dol-|cez- za, e|nel cor|ar-|do.|
w: va, fa- te ch'in gra- tia|vo- stra, fa-|te ch'in gra- tia vo- stra,|fa- te ch'in gra- tia|vo- stra sem-|pre vi-||va.|
V:3
 z8 |"^3)" z8 | z8 |"^1)" z4 z2 F2 | c3 B A2 F2 | c4 z2 F2 | B4 G4 | A3 B c4 | F8 | z8 | z8 | %11
w: |||Voi|se- te pro- prio'il|sol non|che'u- na|stel- * *|la,|||
 z4 z2 F2 | c3 B A2 F2 | c4 z2 F2 | B4 G4 | A3 B c4 | F4 z2 F2 | c4 z2 G2 | c2 c2 d4 | c4 C4 | %20
w: voi|se- te pro- prio'il|sol non|che'u- na|stel- * *|la, per-|che, se'in|voi ris- guar-|do, a-|
 D4 E4 | F4 G4 | A4 B4 | c4 d4 | A6 B2 | c8 | F4 z2 F2 | c4 z2 G2 | c2 c2 d4 | c4 C4 | D4 E4 | %31
w: vzm- po|di dol-|cez- za'e|nel cor|ar- *||do, per-|che se'in|voi ris- guar-|do, a-|vam- po|
 F4 G4 | A4 B4 | c4 d4 | A6 B2 | c8 | F8 |] %37
w: di dol-|cez- za'e|nel cor|ar- *||do.|

